X:60
T: LURE LURE LAEMPKEN
N: K0845
O: Europa, Mitteleuropa, Deutschland, Moers
R: Kinder -, Tier - Lied
M: 2/4
L: 1/8
K: G
 | GGAA | B2Gz |
GGAA | B2Gz |
BBAG | B2B2 |
AAAB | G2Gz

@@@ Tune index: 7397
